communes/23.svg

<?xml version="1.0" encoding="UTF-8"?>
<svg version="1.0" viewBox="0 0 229.92 269.32" xmlns="http://www.w3.org/2000/svg" xmlns:cc="http://creativecommons.org/ns#" xmlns:dc="http://purl.org/dc/elements/1.1/" xmlns:rdf="http://www.w3.org/1999/02/22-rdf-syntax-ns#">
<metadata>
<rdf:RDF>
<cc:Work rdf:about="">
<dc:format>image/svg+xml</dc:format>
<dc:type rdf:resource="http://purl.org/dc/dcmitype/StillImage"/>
</cc:Work>
</rdf:RDF>
</metadata>
<g transform="translate(-74.453 -62.057)">
<path d="m75.453 63.057 4.144 174.07c2.96 124.33 216.67 124.33 219.63 0l4.144-174.07h-227.92z" fill="#2166ba" fill-rule="evenodd" stroke="#000" stroke-width="2"/>
<path d="m206.08 211.1 22.29 1.437-3.1029 23.606c0.13551 4.2 0.1647 7.6201 1.173 9.4478 1.0281 1.8637 2.2578 4.3545 0.07299 4.8805-2.2336 0.53776-26.73 24.347-26.73 24.347s-1.4586 0.65946-1.8324-0.83566c-0.4835-1.934 0.09253-2.58 0.09253-2.58l-3.9158 4.3394s2.0864 3.8331 0.30447 7.229c-1.8373 3.5014-9.0802 5.7715-12.195 5.7715s0.21034-3.7211 1.261-5.063l4.7648-7.7915-4.7648 7.7915s-2.909 0.21258-4.9535 0.05787c0.59846-2.974 4.1356-7.0038 6.3783-10.368s4.0638-5.1632 16.763-13.567c12.638-8.3629 6.3859-15.831 1.9596-22.436-4.3856-6.544-6.6248-13.237-3.7592-18.968 2.8656-5.7313 4.283-6.3206 6.1932-7.2994z" fill="#fff" fill-rule="evenodd" stroke="#000" stroke-width="1px"/>
<path d="m218.66 222.36c-7.6029-3.4077-17.944-6.8963-11.465-7.6439s15.45 1.9935 15.45 1.9935l-3.9844 5.6504z" fill="none" stroke="#000" stroke-width="1px"/>
<path d="m178.04 175.65-28.027 1.1935c-4.162-2.3758-14.857-7.2465-11.399-11.164-3.6509 5.0908-8.7847-0.00309-10.508 0.05196-1.5985 0.05108-8.0795 2.5614-13.279 4.3593l0.09961-3.7344-3.1103 1.2732s-4.7836 7.7912-9.9836 8.0464c-5.1999 0.25515-7.904-3.0708-8.7756-4.4073-0.87162-1.3365 1.294-1.2438 3.5028-2.4529 2.2763-1.246 6.3923-3.3904 6.3923-3.3904l-6.0234 2.737s-2.4645-2.4502-1.966-3.848c0.50009-1.4023 8.8546-4.3884 16.488-4.8382 7.7219-0.44989 20.394-4.941 24.737-4.1283 4.4294 0.82874 19.849 5.9691 23.478 6.6797" fill="#fff" fill-rule="evenodd" stroke="#000" stroke-width="1px"/>
<path d="m115.32 126.34c12.114 1.5858 27.805 5.6285 22.889-4.9373-5.7297 0.32795-18.646-3.0095-22.889 4.9373z" fill="#fff" fill-rule="evenodd" stroke="#000" stroke-width="1px"/>
<path d="m225.27 236.15c-1.1238-1.4653-8.4518-9.7019-6.1924-17.694l-1.0098-13.59 1.0098 13.59c-4.7061-1.92-12.009-5.9701-16.235-8.5955-5.2172-3.2414-16.641-11.763-23.16-19.834-6.6464-8.2279-21.411-22.567-22.304-26.951-0.69304-3.4009-2.8456-9.7239-1.2584-20.744l-0.49838 2.7411s-7.1018-3.1148-7.7248-5.1083c-0.62297-1.9935-0.99675-3.2394-0.99675-3.2394-4.8946-0.74634-9.8412-0.93481-13.52-5.0265-6.0623-0.00209-11.947-0.53008-15.28-1.4159-3.3326-0.8858-8.489-2.5563-5.3325-3.8989 3.0821-1.3109 24.266 2.6626 24.913-0.49837s-2.1329-11.583-6.2724-13.411c-4.2134-1.8602-3.3002-0.64909-5.4268-1.1849-2.1266-0.53584-4.4828-2.2567-5.4947-0.72933-0.97169 1.4667-16.142-4.0433-15.064-10.283 19.158-0.92376 19.049-3.479 22.518-5.1331s5.5511-2.3959 9.1616-3.103c3.6106-0.70705 6.8329-0.99352 9.8522-1.7466 3.0388-0.75792 8.1378-5.139 11.035-12.955 0.34187 2.4036 0.49242 6.7467-0.15223 11.205 1.8222-2.1497 3.5163-8.052 5.759-12.122 0.49211 4.5723 1.2485 7.7349-0.37378 11.338 2.658-3.0733 5.316-6.1466 7.974-9.2199l0.7859 15.383 7.9357-2.3002c5.5438-0.53868 10.295-0.37256 15.574 0.49838-4.6515 0.6645-8.5982 2.0338-13.955 1.9935 4.5684 0.70603 9.1369 1.4121 13.705 2.1181-3.6648 0.52479-5.1271 1.6663-10.466 2.3673 5.4507 0.30706 12.575 1.1427 15.823 2.2427-3.3175 0.71107-6.8111 1.2459-10.217 1.8689 5.3991 1.2459 12.648 1.699 16.197 3.7378-3.6648-0.19132-6.713 0.05787-10.466 0.74756 7.628 0.99797 11.732 2.9651 17.069 5.1084-3.4723 0.07298-5.3588 0.49837-9.7121 0.48326 7.6054 0.97659 11.07 2.4818 14.447 4.2513l-8.597 0.74757c4.6654 0.80543 8.0974 2.1395 11.265 4.0902-2.804 0.24919-6.489 0.14598-9.6453 0.39517 9.7475 1.3869 12.447 3.831 16.82 5.4821-2.9122 0.61167-5.2078 0.69473-8.4724 0.24918 10.807 2.5788 9.5447 3.7479 11.189 4.917-2.663-0.56509-5.7666-0.16108-7.02-0.19757 5.5817 1.9205 7.9917 3.841 9.785 5.4972-1.6612 0.04153-3.3225 0.08306-4.9838 0.12459 5.9089 1.7959 9.7915 3.5918 11.295 5.564-1.5681 0.07298-4.1934-0.20644-5.9378 0.04275 5.515 1.5794 9.0036 4.7446 10.466 6.8527-2.3207-0.54998-4.5533-1.3643-7.2264-1.1213 5.5918 2.4705 7.3071 4.6767 8.8462 6.3543-1.952 0.04153-3.9039 0.08307-5.8559 0.1246 5.4734 2.3622 8.5681 4.9007 10.341 7.351-1.952-0.33225-2.9965-0.86239-4.7106-1.173 7.8889 8.852 17.234 20.713 18.364 28.738 1.118 7.9392 3.4411 12.59 9.7319 12.264 6.2857-0.32506 7.8248-5.6364 7.9374-8.904 0.11245-3.2657-2.4439-6.1114-6.2343-6.1985-3.7022-0.08708-4.3992 3.1179-5.2267 5.8132-1.5323-1.1812-2.5751-5.8295 1.1239-8.5996 2.7819-2.0833 10.303-1.8884 13.709 5.8069 3.3729 7.6216-2.9909 17.858-9.9701 18.446-6.8917 0.58111-7.3693-1.0339-8.6522-1.9633-0.13765 5.0616-0.8012 11.153-3.3515 18.597-2.5597 7.4714-8.0988 12.997-7.6278 17.599 0.47181 4.61 7.3031 7.3031 7.3083 10.858 0.00519 3.4672-17.498 27.271-18.492 30.558-1.0013 3.3128-3.0379 4.3283-3.3275 2.7223-0.30502-1.6914-1.0484-2.9626-1.0484-2.9626s-3.4219 2.5284-3.2973 5.6432-0.37378 10.017-7.4392 11.557c-6.8561 1.4948-7.0805 0.74131-4.8378-2.8719 2.2427-3.6132 5.3575-10.217 5.3575-10.217l-4.1116 7.6002s-3.2066 0.4086-4.9838 0.1246c0.24919-2.3984 3.5199-6.9205 5.8043-10.423 2.3245-3.5642 4.5015-5.432 9.2716-8.7946 4.0409-2.8485 2.6836-2.4275 6.8224-7.7462 4.1719-5.3611 3.4886-10.773-0.37378-14.76-3.8624-3.987-13.805-15.349-16.665-19.078z" fill="#fff" fill-rule="evenodd" stroke="#000" stroke-width="1px"/>
<path d="m186.03 183.12c-1.1804 2.3439-3.9203 5.133-6.509 6.1204-8.1674-0.68564-18.815-0.73144-22.003-1.9015-3.0426-1.1167-8.4657-1.4851-10.246-0.2466-1.7398 1.2104-4.9593 1.4767-8.0997-0.16368-3.9602 3.0454-8.4588 7.7124-13.501 10.217l-0.6016-3.3401-4.3368 2.4679s-1.4951 9.3445-6.3543 11.213-10.59 0.99675-11.836 0-3.1148-1.6197 0.49837-3.4886 8.4724-7.1018 8.4724-7.1018l-5.7313 5.2329s-3.4154-1.0839-3.3792-2.5675c0.03636-1.4883 8.4011-7.4771 15.264-10.306 6.8314-2.8162 18.711-12.014 23.091-12.6 4.4663-0.59839 7.916-0.50479 10.761-2.1518 2.8821-1.6687 18.187-8.1208 23.662-3.8384" fill="#fff" fill-rule="evenodd" stroke="#000" stroke-width="1px"/>
<path transform="translate(-1.3215 -1.1453)" d="m143.16 103.56a2.3347 2.3347 0 1 1-4.6694 0 2.3347 2.3347 0 1 1 4.6694 0z" fill-rule="evenodd"/>
<path d="m134.79 101.93c1.2778-4.5521 7.1122-4.1404 8.6804-1.4084l-8.0054 0.13852" fill="none" stroke="#000" stroke-width="1px"/>
<path d="m102.37 97.169c-0.04405 8.0172 6.4915 15.007 8.4577 13.127 2.0118-1.9236-3.48-9.1625-8.4577-13.127z" fill="#fff" fill-rule="evenodd" stroke="#000" stroke-width="1px"/>
<path d="m113.82 107.08c7.6002-3.6132 11.681 1.3082 13.082 4.2362" fill="none" stroke="#000" stroke-width="1px"/>
<path d="m114.26 96.277c-6.2372 3.107-5.1989 8.782-3.5527 12.105 1.6462 3.3234 7.2797 4.665 9.103 2.5194 1.8664-2.1964-1.5266-3.4747-4.5068-4.7702-2.9802-1.2954-2.9856-6.3638-1.0436-9.8546z" fill="#fff" fill-rule="evenodd" stroke="#000" stroke-width="1px"/>
<path d="m161.44 94.525c14.36-18.149 26.254-16.034 26.254-16.034-0.28128 2.7187-2.6372 4.2418-4.1516 6.0032 1.0188-0.48869 2.2306-0.75837 3.1582-0.8186-1.098 1.8766-5.8706 6.6048-7.7076 8.1889 0.54911-0.13694 1.1194-0.058858 1.4651-0.1057-2.4696 2.7217-4.7674 5.453-7.8294 7.524" fill="#fff" fill-rule="evenodd" stroke="#000" stroke-width="1px"/>
<path d="m146.99 137.05c20.958-0.94869 24.197-20.012 24.197-21.88 0-1.8689-0.74756-10.092-2.9902-12.709-2.2427-2.6165-2.1181-5.3575 1.9935-11.213 4.1116-5.8559 9.9675-8.0986 9.9675-8.0986" fill="none" stroke="#000" stroke-width="1px"/>
<path d="m114.27 117.87c0.57266 6.7838 2.2626 11.924 4.2288 10.044 2.0118-1.9236 0.04405-5.4623-4.2288-10.044z" fill="#fff" fill-rule="evenodd" stroke="#000" stroke-width="1px"/>
<path d="m137.72 123.92c-7.5331 2.3147-9.9578 2.0128-15.124 0.96347 4.792-1.4425 9.9578-1.3899 15.124-0.96347z" fill="#fff" fill-rule="evenodd" stroke="#000" stroke-width="1px"/>
<path d="m119.29 115.67c-3.0395 8.3696 0.96172 13.603 5.0218 11.277 4.1262-2.3641-3.7443-4.2288-5.0218-11.277z" fill="#fff" fill-rule="evenodd" stroke="#000" stroke-width="1px"/>
</g>
</svg>

<?xml version="1.0" encoding="UTF-8" standalone="no"?>
<svg
   xmlns:dc="http://purl.org/dc/elements/1.1/"
   xmlns:cc="http://creativecommons.org/ns#"
   xmlns:rdf="http://www.w3.org/1999/02/22-rdf-syntax-ns#"
   xmlns:svg="http://www.w3.org/2000/svg"
   xmlns="http://www.w3.org/2000/svg"
   xmlns:sodipodi="http://sodipodi.sourceforge.net/DTD/sodipodi-0.dtd"
   xmlns:inkscape="http://www.inkscape.org/namespaces/inkscape"
   version="1.0"
   width="229.92165"
   height="269.31738"
   id="svg2780"
   sodipodi:docname="23.svg">
  <metadata
     id="metadata24">
    <rdf:RDF>
      <cc:Work
         rdf:about="">
        <dc:format>image/svg+xml</dc:format>
        <dc:type
           rdf:resource="http://purl.org/dc/dcmitype/StillImage" />
      </cc:Work>
    </rdf:RDF>
  </metadata>
  <sodipodi:namedview
     pagecolor="#ffffff"
     bordercolor="#666666"
     borderopacity="1"
     objecttolerance="10"
     gridtolerance="10"
     guidetolerance="10"
     inkscape:pageopacity="0"
     inkscape:pageshadow="2"
     inkscape:window-width="640"
     inkscape:window-height="480"
     id="namedview22" />
  <defs
     id="defs2782" />
  <g
     transform="translate(-74.453091,-62.056616)"
     id="layer1">
    <path
       d="M 75.453091,63.056616 L 79.597125,237.12374 C 82.55714,361.4574 296.27068,361.4574 299.2307,237.12374 L 303.37473,63.056616 L 75.453091,63.056616 z "
       style="fill:#2166ba;fill-opacity:1;fill-rule:evenodd;stroke:#000000;stroke-width:2;stroke-linecap:butt;stroke-miterlimit:4;stroke-dashoffset:0;stroke-opacity:1"
       id="path3282" />
    <path
       d="M 206.07824,211.10444 L 228.36863,212.54141 L 225.2657,236.14781 C 225.40121,240.34784 225.4304,243.7679 226.43865,245.59556 C 227.46678,247.45924 228.69646,249.95008 226.51164,250.4761 C 224.27806,251.01386 199.78182,274.82351 199.78182,274.82351 C 199.78182,274.82351 198.32319,275.48297 197.94941,273.98785 C 197.46591,272.05387 198.04194,271.40787 198.04194,271.40787 L 194.12609,275.74727 C 194.12609,275.74727 196.2125,279.58036 194.43056,282.97631 C 192.59327,286.47775 185.35032,288.7478 182.23547,288.7478 C 179.12062,288.7478 182.44581,285.02672 183.49652,283.68479 L 188.26132,275.89325 L 183.49652,283.68479 C 183.49652,283.68479 180.58757,283.89737 178.543,283.74266 C 179.14146,280.76871 182.67857,276.73884 184.92126,273.37481 C 187.16395,270.01078 188.98511,268.21161 201.68463,259.80812 C 214.32282,251.44521 208.07053,243.97699 203.64423,237.37236 C 199.2586,230.82841 197.01939,224.13519 199.88505,218.40387 C 202.7507,212.67255 204.16808,212.08326 206.07824,211.10444 z "
       style="fill:#ffffff;fill-opacity:1;fill-rule:evenodd;stroke:#000000;stroke-width:1px;stroke-linecap:butt;stroke-linejoin:miter;stroke-opacity:1"
       id="path3296" />
    <path
       d="M 218.66488,222.36154 C 211.062,218.95385 200.72071,215.46522 207.19959,214.71766 C 213.67847,213.9701 222.64923,216.71116 222.64923,216.71116 L 218.66488,222.36154 z "
       style="fill:none;fill-opacity:0.75;fill-rule:evenodd;stroke:#000000;stroke-width:1px;stroke-linecap:butt;stroke-linejoin:miter;stroke-opacity:1"
       id="path4281" />
    <path
       d="M 178.03577,175.64632 L 150.00853,176.83985 C 145.84657,174.4641 135.15152,169.59335 138.60966,165.67584 C 134.9588,170.76667 129.82494,165.67275 128.10199,165.7278 C 126.5035,165.77888 120.0225,168.28916 114.82327,170.08711 L 114.92288,166.3527 L 111.81254,167.62585 C 111.81254,167.62585 107.02889,175.41706 101.82898,175.6722 C 96.629061,175.92735 93.925013,172.60135 93.053388,171.26489 C 92.181763,169.92841 94.347407,170.0211 96.556238,168.81203 C 98.832548,167.56602 102.9485,165.4216 102.9485,165.4216 L 96.925123,168.15863 C 96.925123,168.15863 94.460669,165.70839 94.959173,164.31059 C 95.459267,162.90833 103.81382,159.92223 111.44759,159.47234 C 119.16947,159.02245 131.84109,154.53133 136.18465,155.344 C 140.61401,156.17274 156.03369,161.31308 159.66243,162.0237"
       style="fill:#ffffff;fill-opacity:1;fill-rule:evenodd;stroke:#000000;stroke-width:1px;stroke-linecap:butt;stroke-linejoin:miter;stroke-opacity:1"
       id="path4285" />
    <path
       d="M 115.32095,126.34129 C 127.43486,127.92712 143.12617,131.96978 138.20999,121.40395 C 132.48029,121.7319 119.56363,118.39447 115.32095,126.34129 z "
       style="fill:#ffffff;fill-opacity:1;fill-rule:evenodd;stroke:#000000;stroke-width:1px;stroke-linecap:butt;stroke-linejoin:miter;stroke-opacity:1"
       id="path4291" />
    <path
       d="M 225.2657,236.14781 C 224.14191,234.6825 216.81394,226.44591 219.07335,218.45402 L 218.0636,204.86371 L 219.07335,218.45402 C 214.36725,216.53407 207.06461,212.48394 202.8388,209.8585 C 197.62162,206.61714 186.19827,198.09506 179.67862,190.02401 C 173.03224,181.7961 158.2681,167.4575 157.37456,163.07275 C 156.68152,159.67186 154.52899,153.34888 156.11611,142.32863 L 155.61773,145.06969 C 155.61773,145.06969 148.51588,141.95485 147.89291,139.96135 C 147.26994,137.96784 146.89616,136.7219 146.89616,136.7219 C 142.00158,135.97556 137.05494,135.78709 133.37589,131.6954 C 127.31355,131.69331 121.42878,131.16532 118.09619,130.27952 C 114.76361,129.39372 109.60719,127.72318 112.7637,126.38061 C 115.84577,125.0697 137.02955,129.04322 137.67622,125.88224 C 138.32289,122.72126 135.54335,114.29906 131.40377,112.47145 C 127.19034,110.61123 128.1036,111.82236 125.97696,111.28652 C 123.85033,110.75068 121.49414,109.02979 120.48226,110.55719 C 119.51057,112.02392 104.34033,106.51385 105.4182,100.27377 C 124.57659,99.350008 124.46685,96.794754 127.93651,95.140662 C 131.40617,93.48657 133.48757,92.744764 137.09815,92.037709 C 140.70873,91.330655 143.93109,91.04419 146.95036,90.291149 C 149.98917,89.533232 155.08821,85.152142 157.98501,77.336026 C 158.32688,79.739644 158.47743,84.082713 157.83278,88.540574 C 159.65497,86.390847 161.34905,80.488542 163.59174,76.418476 C 164.08385,80.990734 164.84027,84.153373 163.21796,87.756518 C 165.87596,84.683203 168.53396,81.609887 171.19196,78.536572 L 171.97786,93.919124 L 179.91353,91.618927 C 185.45735,91.080243 190.20826,91.246368 195.48777,92.117303 C 190.83626,92.781803 186.88957,94.151113 181.53325,94.110804 C 186.10169,94.816836 190.67014,95.522868 195.23858,96.2289 C 191.57375,96.753691 190.11144,97.89519 184.77269,98.596183 C 190.22337,98.90324 197.34796,99.738903 200.59611,100.83887 C 197.27865,101.54994 193.78498,102.08481 190.37942,102.70778 C 195.77849,103.95372 203.02768,104.40675 206.57662,106.4456 C 202.91179,106.25428 199.86367,106.50347 196.11074,107.19316 C 203.73875,108.19113 207.84271,110.15822 213.18009,112.30151 C 209.7078,112.37449 207.82133,112.79988 203.46803,112.78477 C 211.07344,113.76136 214.5381,115.26656 217.91466,117.03607 C 215.049,117.28526 212.18334,117.53445 209.31768,117.78364 C 213.98308,118.58907 217.41506,119.92311 220.58274,121.87385 C 217.77877,122.12304 214.09379,122.01983 210.93741,122.26902 C 220.68489,123.65589 223.38427,126.09998 227.75758,127.75115 C 224.84535,128.36282 222.54983,128.44588 219.28519,128.00033 C 230.09248,130.57909 228.82991,131.74823 230.47467,132.91736 C 227.81163,132.35227 224.70809,132.75628 223.45466,132.71979 C 229.03634,134.6403 231.44638,136.56082 233.23971,138.21703 C 231.57846,138.25856 229.9172,138.30009 228.25595,138.34162 C 234.16484,140.13755 238.04741,141.93347 239.55124,143.9056 C 237.98313,143.97858 235.3578,143.69916 233.61349,143.94835 C 239.12844,145.52776 242.61707,148.69299 244.07937,150.80101 C 241.75866,150.25103 239.52605,149.43674 236.85293,149.67967 C 242.44468,152.15017 244.15999,154.35636 245.69909,156.03395 C 243.74712,156.07548 241.79515,156.11702 239.84318,156.15855 C 245.3166,158.52079 248.4113,161.05924 250.18447,163.50958 C 248.2325,163.17733 247.18795,162.64719 245.47388,162.33663 C 253.36282,171.18859 262.70799,183.04944 263.83819,191.07506 C 264.95623,199.0143 267.27928,203.66479 273.57011,203.33946 C 279.85578,203.0144 281.39495,197.70304 281.50746,194.43549 C 281.61991,191.16978 279.06353,188.32411 275.27318,188.23703 C 271.57093,188.14995 270.87396,191.3549 270.0465,194.05019 C 268.51424,192.86903 267.47144,188.22073 271.17044,185.45062 C 273.95237,183.36728 281.47391,183.56217 284.87943,191.25752 C 288.25233,198.87913 281.88855,209.11519 274.90933,209.70367 C 268.0176,210.28478 267.54005,208.66973 266.25708,207.7404 C 266.11943,212.80195 265.45588,218.89369 262.90556,226.33772 C 260.34585,233.80917 254.80673,239.33488 255.27771,243.93676 C 255.74952,248.54673 262.5808,251.23985 262.58599,254.7952 C 262.59118,258.26245 245.08813,282.06614 244.09448,285.35353 C 243.09317,288.6663 241.05657,289.68182 240.76694,288.0758 C 240.46192,286.38439 239.71859,285.11319 239.71859,285.11319 C 239.71859,285.11319 236.29669,287.64156 236.42128,290.75641 C 236.54587,293.87126 236.0475,300.77293 228.98213,302.3134 C 222.12602,303.80825 221.90166,303.05471 224.14435,299.44149 C 226.38704,295.82826 229.50189,289.22479 229.50189,289.22479 L 225.39029,296.82501 C 225.39029,296.82501 222.18368,297.23361 220.40654,296.94961 C 220.65573,294.55118 223.92647,290.02911 226.21084,286.52648 C 228.53537,282.96227 230.71236,281.09446 235.4824,277.73192 C 239.52329,274.88338 238.16595,275.30442 242.30482,269.98573 C 246.47671,264.62462 245.79345,259.21278 241.93104,255.22578 C 238.06863,251.23877 228.12563,239.87688 225.2657,236.14781 z "
       style="fill:#ffffff;fill-opacity:1;fill-rule:evenodd;stroke:#000000;stroke-width:1px;stroke-linecap:butt;stroke-linejoin:miter;stroke-opacity:1"
       id="path4279" />
    <path
       d="M 186.02901,183.12458 C 184.84863,185.46848 182.10875,188.25754 179.52001,189.24501 C 171.35265,188.55937 160.70493,188.51357 157.51687,187.34351 C 154.47431,186.22685 149.05113,185.85845 147.27101,187.09691 C 145.53118,188.30733 142.31174,188.57361 139.17134,186.93323 C 135.21117,189.97858 130.71258,194.64566 125.66986,197.14993 L 125.06826,193.80987 L 120.73145,196.27777 C 120.73145,196.27777 119.23632,205.62231 114.37716,207.49122 C 109.518,209.36013 103.78669,208.48797 102.54075,207.49122 C 101.29481,206.49447 99.4259,205.8715 103.03912,204.00259 C 106.65234,202.13368 111.5115,196.90074 111.5115,196.90074 L 105.78019,202.13368 C 105.78019,202.13368 102.36479,201.0498 102.40104,199.56622 C 102.4374,198.07789 110.80216,192.08909 117.66499,189.2599 C 124.49635,186.44369 136.37602,177.24638 140.75581,176.65958 C 145.22212,176.06119 148.67182,176.15479 151.51651,174.50774 C 154.39864,172.83901 169.70339,166.38689 175.17834,170.6693"
       style="fill:#ffffff;fill-opacity:1;fill-rule:evenodd;stroke:#000000;stroke-width:1px;stroke-linecap:butt;stroke-linejoin:miter;stroke-opacity:1"
       id="path2323" />
    <path
       d="M 143.16439 103.5567 A 2.3346808 2.3346808 0 1 1  138.49503,103.5567 A 2.3346808 2.3346808 0 1 1  143.16439 103.5567 z"
       transform="translate(-1.3215175,-1.1453151)"
       style="opacity:1;fill:#000000;fill-opacity:1;fill-rule:evenodd;stroke:none;stroke-width:1;stroke-linecap:round;stroke-linejoin:miter;stroke-miterlimit:4;stroke-dasharray:none;stroke-dashoffset:0;stroke-opacity:1"
       id="path3298" />
    <path
       d="M 134.79478,101.92683 C 136.07258,97.374686 141.90695,97.786471 143.4752,100.5184 L 135.46981,100.65692"
       style="fill:none;fill-opacity:0.75;fill-rule:evenodd;stroke:#000000;stroke-width:1px;stroke-linecap:butt;stroke-linejoin:miter;stroke-opacity:1"
       id="path3300" />
    <path
       d="M 102.37355,97.169369 C 102.3295,105.18658 108.86503,112.1765 110.83126,110.29644 C 112.84302,108.37284 107.35126,101.13392 102.37355,97.169369 z "
       style="fill:#ffffff;fill-opacity:1;fill-rule:evenodd;stroke:#000000;stroke-width:1px;stroke-linecap:butt;stroke-linejoin:miter;stroke-opacity:1"
       id="path3302" />
    <path
       d="M 113.82167,107.0759 C 121.42189,103.46267 125.50234,108.38413 126.90402,111.31209"
       style="fill:none;fill-opacity:0.75;fill-rule:evenodd;stroke:#000000;stroke-width:1px;stroke-linecap:butt;stroke-linejoin:miter;stroke-opacity:1"
       id="path11538" />
    <path
       d="M 114.26418,96.277095 C 108.02696,99.384116 109.06532,105.05908 110.7115,108.38251 C 112.35767,111.70595 117.99123,113.04752 119.81455,110.90189 C 121.68098,108.70554 118.28798,107.42715 115.30775,106.13172 C 112.32752,104.8363 112.32212,99.767886 114.26418,96.277095 z "
       style="fill:#ffffff;fill-opacity:1;fill-rule:evenodd;stroke:#000000;stroke-width:1px;stroke-linecap:butt;stroke-linejoin:miter;stroke-opacity:1"
       id="path4273" />
    <path
       d="M 161.44263,94.525448 C 175.80312,76.376606 187.69677,78.491034 187.69677,78.491034 C 187.41549,81.209701 185.05955,82.732876 183.54517,84.49424 C 184.56398,84.005553 185.77576,83.735872 186.70335,83.675645 C 185.60537,85.552195 180.83278,90.280439 178.99576,91.864566 C 179.54487,91.727628 180.11513,91.805708 180.46087,91.758863 C 177.99125,94.480548 175.69342,97.211898 172.63148,99.282908"
       style="fill:#ffffff;fill-opacity:1;fill-rule:evenodd;stroke:#000000;stroke-width:1px;stroke-linecap:butt;stroke-linejoin:miter;stroke-opacity:1"
       id="path11540" />
    <path
       d="M 146.99456,137.04763 C 167.95252,136.09894 171.19196,117.03607 171.19196,115.16717 C 171.19196,113.29826 170.4444,105.07506 168.20171,102.45859 C 165.95902,99.842122 166.08362,97.101057 170.19521,91.245146 C 174.30681,85.389234 180.16272,83.146545 180.16272,83.146545"
       style="fill:none;fill-opacity:0.75;fill-rule:evenodd;stroke:#000000;stroke-width:1px;stroke-linecap:butt;stroke-linejoin:miter;stroke-opacity:1"
       id="path4283" />
    <path
       d="M 114.26721,117.87314 C 114.83987,124.65693 116.52983,129.79673 118.49606,127.91667 C 120.50782,125.99307 118.54011,122.4544 114.26721,117.87314 z "
       style="fill:#ffffff;fill-opacity:1;fill-rule:evenodd;stroke:#000000;stroke-width:1px;stroke-linecap:butt;stroke-linejoin:miter;stroke-opacity:1"
       id="path4287" />
    <path
       d="M 137.72397,123.92202 C 130.19089,126.23668 127.76616,125.93487 122.60036,124.88549 C 127.39238,123.44299 132.55817,123.49561 137.72397,123.92202 z "
       style="fill:#ffffff;fill-opacity:1;fill-rule:evenodd;stroke:#000000;stroke-width:1px;stroke-linecap:butt;stroke-linejoin:miter;stroke-opacity:1"
       id="path4751" />
    <path
       d="M 119.28752,115.66851 C 116.24803,124.03812 120.24924,129.27166 124.30928,126.94545 C 128.43547,124.58135 120.56498,122.7166 119.28752,115.66851 z "
       style="fill:#ffffff;fill-opacity:1;fill-rule:evenodd;stroke:#000000;stroke-width:1px;stroke-linecap:butt;stroke-linejoin:miter;stroke-opacity:1"
       id="path4289" />
  </g>
</svg>
